X: 1474
T: Andre Alain's
R: jig
M: 6/8
K: Dmajor
|:A|DF/G/A DFA|dcB B2 A|DFA DFA|GFG E2 F|
DFA DFA|dcB B2 A|Ace Ac/d/e|gfe d2:|
|:g|f2 f def|gfg ee/f/g|afd edc|B2 c A2 e|
faf dd/e/f|gfg e2 g|afd edc|A2 c d2:|

